symbols/web/local_gas_station/materialsymbolssharp/local_gas_station_gradN25fill1_20px.svg

<svg xmlns="http://www.w3.org/2000/svg" height="20" width="20"><path d="M3.521 17.312V2.688h8.104v7.333h2.417v6.083h1.583V9.438q-.208.083-.406.114-.198.031-.427.031-.834 0-1.427-.604-.594-.604-.594-1.437 0-.646.375-1.157.375-.51.958-.718l-1.708-1.709.875-.875L16.229 6q.313.292.469.688.156.395.156.854v9.77h-4.042v-6.083h-1.187v6.083Zm1.646-8.958h4.812V4.333H5.167Zm9.645 0q.355 0 .594-.239.24-.24.24-.594 0-.333-.24-.573-.239-.24-.594-.24-.333 0-.572.24-.24.24-.24.573 0 .354.24.594.239.239.572.239Z"/></svg>

<svg xmlns="http://www.w3.org/2000/svg" height="20" width="20"><path d="M3.521 17.312V2.688H11.625V10.021H14.042V16.104H15.625V9.438Q15.417 9.521 15.219 9.552Q15.021 9.583 14.792 9.583Q13.958 9.583 13.365 8.979Q12.771 8.375 12.771 7.542Q12.771 6.896 13.146 6.385Q13.521 5.875 14.104 5.667L12.396 3.958L13.271 3.083L16.229 6Q16.542 6.292 16.698 6.688Q16.854 7.083 16.854 7.542V17.312H12.812V11.229H11.625V17.312ZM5.167 8.354H9.979V4.333H5.167ZM14.812 8.354Q15.167 8.354 15.406 8.115Q15.646 7.875 15.646 7.521Q15.646 7.188 15.406 6.948Q15.167 6.708 14.812 6.708Q14.479 6.708 14.24 6.948Q14 7.188 14 7.521Q14 7.875 14.24 8.115Q14.479 8.354 14.812 8.354Z"/></svg>
